assets/icons/microphone/medium-filled.svg

<?xml version="1.0" encoding="UTF-8" standalone="no"?>
<svg
   viewBox="0 0 24 24"
   height="24"
   width="24"
   version="1.1"
   id="svg10"
   sodipodi:docname="medium-filled.svg"
   inkscape:version="1.2 (1:1.2.1+202207142221+cd75a1ee6d)"
   xmlns:inkscape="http://www.inkscape.org/namespaces/inkscape"
   xmlns:sodipodi="http://sodipodi.sourceforge.net/DTD/sodipodi-0.dtd"
   xmlns="http://www.w3.org/2000/svg"
   xmlns:svg="http://www.w3.org/2000/svg">
  <defs
     id="defs14" />
  <sodipodi:namedview
     id="namedview12"
     pagecolor="#ffffff"
     bordercolor="#666666"
     borderopacity="1.0"
     inkscape:pageshadow="2"
     inkscape:pageopacity="0.0"
     inkscape:pagecheckerboard="0"
     showgrid="true"
     width="24px"
     inkscape:zoom="28"
     inkscape:cx="6.4285714"
     inkscape:cy="11.214286"
     inkscape:window-width="1920"
     inkscape:window-height="1043"
     inkscape:window-x="0"
     inkscape:window-y="0"
     inkscape:window-maximized="1"
     inkscape:current-layer="svg10"
     inkscape:showpageshadow="2"
     inkscape:deskcolor="#d1d1d1">
    <inkscape:grid
       type="xygrid"
       id="grid824"
       dotted="false" />
    <inkscape:grid
       type="xygrid"
       id="grid826"
       dotted="true"
       spacingx="0.5"
       spacingy="0.5"
       empspacing="0" />
  </sodipodi:namedview>
  <path
     style="color:#000000;line-height:normal;font-variant-ligatures:normal;font-variant-position:normal;font-variant-caps:normal;font-variant-numeric:normal;font-variant-alternates:normal;font-feature-settings:normal;text-indent:0;text-align:start;text-decoration-line:none;text-decoration-style:solid;text-decoration-color:#000000;text-transform:none;text-orientation:mixed;shape-padding:0;isolation:auto;mix-blend-mode:normal;fill:#808080;stroke-width:0.666666"
     d="m 21.148438,8.1582031 -0.44336,0.4414063 c -1.952118,1.9525346 -1.952118,5.1177776 0,7.0703126 l 0.44336,0.441406 0.882812,-0.884766 -0.443359,-0.439453 c -1.464779,-1.464115 -1.464779,-3.838619 0,-5.302734 l 0.443359,-0.4433594 z"
     id="path926" />
  <path
     style="color:#000000;line-height:normal;font-variant-ligatures:normal;font-variant-position:normal;font-variant-caps:normal;font-variant-numeric:normal;font-variant-alternates:normal;font-feature-settings:normal;text-indent:0;text-align:start;text-decoration-line:none;text-decoration-style:solid;text-decoration-color:#000000;text-transform:none;text-orientation:mixed;shape-padding:0;isolation:auto;mix-blend-mode:normal;fill:#808080;stroke-width:0.666666"
     d="m 18.822266,5.8222656 c -2.029461,2.0294608 -3.072266,4.0969285 -3.072266,6.2402344 0,2.143306 1.038066,4.326027 3.0625,6.603516 l 0.375,-0.332032 c -1.975562,-2.222506 -2.9375,-4.289794 -2.9375,-6.271484 0,-1.98169 0.957199,-3.9142304 2.927734,-5.8847656 z"
     id="path924" />
  <path
     id="path295"
     style="fill:#808080;fill-opacity:1;fill-rule:evenodd;stroke-width:0.5;stroke-linecap:round;stroke-linejoin:round"
     d="M 7.5 2 C 5.5610019 2 4 3.5610019 4 5.5 L 4 12.5 C 4 14.438998 5.5610019 16 7.5 16 C 9.4389981 16 11 14.438998 11 12.5 L 11 5.5 C 11 3.5610019 9.4389981 2 7.5 2 z M 2 11 L 2 12.5 A 5.5 5.5 0 0 0 7 17.966797 L 7 21.011719 C 5.2559037 21.083229 4 21.5 4 21.5 L 4 22 L 11 22 L 11 21.5 C 11 21.5 9.7440963 21.083229 8 21.011719 L 8 17.966797 A 5.5 5.5 0 0 0 13 12.5 L 13 11 L 12 11 L 12 12.5 A 4.5 4.5 0 0 1 8 16.964844 L 8 16.5 L 7 16.5 L 7 16.964844 A 4.5 4.5 0 0 1 3 12.5 L 3 11 L 2 11 z " />
</svg>

<svg height="24" width="24" xmlns="http://www.w3.org/2000/svg"><path style="color:#000;line-height:normal;font-variant-ligatures:normal;font-variant-position:normal;font-variant-caps:normal;font-variant-numeric:normal;font-variant-alternates:normal;font-feature-settings:normal;text-indent:0;text-align:start;text-decoration-line:none;text-decoration-style:solid;text-decoration-color:#000;text-transform:none;text-orientation:mixed;shape-padding:0;isolation:auto;mix-blend-mode:normal;fill:gray;stroke-width:.666666" d="m21.148 8.158-.443.442a5 5 0 0 0 0 7.07l.443.441.883-.884-.443-.44a3.749 3.749 0 0 1 0-5.303l.443-.443z"/><path style="color:#000;line-height:normal;font-variant-ligatures:normal;font-variant-position:normal;font-variant-caps:normal;font-variant-numeric:normal;font-variant-alternates:normal;font-feature-settings:normal;text-indent:0;text-align:start;text-decoration-line:none;text-decoration-style:solid;text-decoration-color:#000;text-transform:none;text-orientation:mixed;shape-padding:0;isolation:auto;mix-blend-mode:normal;fill:gray;stroke-width:.666666" d="M18.822 5.822c-2.03 2.03-3.072 4.097-3.072 6.24 0 2.144 1.038 4.327 3.063 6.604l.375-.332c-1.976-2.223-2.938-4.29-2.938-6.272 0-1.981.957-3.914 2.928-5.884z"/><path style="fill:gray;fill-opacity:1;stroke-width:.5;stroke-linecap:round;stroke-linejoin:round" d="M7.5 2A3.492 3.492 0 0 0 4 5.5v7C4 14.439 5.561 16 7.5 16s3.5-1.561 3.5-3.5v-7C11 3.561 9.439 2 7.5 2zM2 11v1.5a5.5 5.5 0 0 0 5 5.467v3.045c-1.744.071-3 .488-3 .488v.5h7v-.5s-1.256-.417-3-.488v-3.045a5.5 5.5 0 0 0 5-5.467V11h-1v1.5a4.5 4.5 0 0 1-4 4.465V16.5H7v.465A4.5 4.5 0 0 1 3 12.5V11H2z"/></svg>
